X:1
T: Mrs. Blair (of Blair)
C:R. Mackintosh
P:Mackintosh collection version
R:Strathspey
Q: 128
K:A
M:4/4
L:1/16
|:A4 EA3 FA3 Ac3|dB3 e3d ce3 a4|cBA2 EA3 FA3 df3|e2dc d2cB c2A2 A4|
A4 EA3 FA3 Ac3|dB3 e3d ce3 a4|cBA2 EA3 FA3 df3|e2dc d2cB c2A2 A4|
cA3 ec3 a3e dc3|BG3 dB3 e3d cB3|AF3 cA3 d3c BA3|BF3 B3A G4 FE3|
cde2 Ac3 f3e dc3|Bcd2 GB3 e3d cB3|ABc2 F2a2 gf3 ed3|ce3 EG3 A4 A4:|
